X:2798
T:Celtic Colours # 1
R:reel
C:Brenda Stubbert
O:20th Century Cape Breton
S:Tune of the Month. September,1998.
B:previously unpublished
D:Celtic Colours Festival 1998 - The Second Wave, Some Tasty Tunes, Brenda
Stubbert, 1999
A: <http://www.capebretonet.com/Music/Stubbert>
N:Contacts ...
N:Recordings and bookings
N:..... <brenda@cranfordpub.com>
N:Tune books and related recordings
N:..... Cranford Publications <http://www.cranfordpub.com>
H:Copyrights:Published by Stubbert Music (SOCAN)
Z:This abc transcription is for personal use only,
Z:provided this notice remains attached.
Z:Used by permission of the composer and publisher.
Z:Paul Stewart Cranford - psc@cranfordpub.com
Q:333
L:1/8
M:C|
K:Ddor
"D minor: (dorian)"|:B|AB c2 dcAG|FEFD EccB|AB c2 dcAG|FDEC Dddc|!
AB c2 dcAG|FEFD EccB|AGAc d2 ed|AcGE EDD:|!
K:Dmix
"D major (mixolydian)"|:g|fd^cd Adfa|gecd efge|fd^cd Adfa|gecd edde|!
fd^cd Adfa|gecd efge|(3(aba) ge d=fed|cAGc Add:|!


